assets/svg/content.svg

<svg viewBox="0 0 50 50" xmlns="http://www.w3.org/2000/svg" xmlns:xlink="http://www.w3.org/1999/xlink" width="50.000000" height="50.000000" fill="none" customFrame="#000000">
	<g id="content">
		<g id="Сочетание 2">
			<path id="Форма 1" d="M2.62523 9.55409L12.1921 9.55409C13.244 9.55409 14.1059 10.4013 14.1059 11.4376L14.1059 20.8529C14.1059 21.8881 13.245 22.7363 12.1921 22.7363L2.62523 22.7363C1.57331 22.7363 0.711443 21.8891 0.711443 20.8529L0.711443 11.4366C0.711443 10.4013 1.57229 9.55409 2.62523 9.55409Z" fill="rgb(215,27,90)" fill-rule="evenodd" />
			<ellipse id="Эллипс 1" rx="3.191052" ry="3.143087" cx="3.19105244" cy="3.14308739" fill="rgb(234,234,234)" transform="matrix(0.987397,-0.15826,0.163262,0.986583,3.74055,13.5488)" />
			<path id="Форма 2" d="M28.8968 34.0931L39.9313 34.0931C41.1448 34.0931 42.1378 35.0703 42.1378 36.2646L42.1378 47.1243C42.1378 48.3186 41.1448 49.2958 39.9313 49.2958L28.8968 49.2958C27.6833 49.2958 26.6903 48.3186 26.6903 47.1243L26.6903 36.2646C26.6903 35.0703 27.6833 34.0931 28.8968 34.0931Z" fill="rgb(252,177,60)" fill-rule="evenodd" />
			<path id="Форма 3" d="M1.52249 33.778L23.252 33.778L23.252 47.4474C23.252 48.4656 22.4084 49.2958 21.3738 49.2958L3.4007 49.2958C2.36606 49.2958 1.52249 48.4656 1.52249 47.4474L1.52249 33.778ZM2.10384 28.7708L19.4641 24.1927C20.4632 23.9296 21.4968 24.5168 21.7651 25.5L22.5121 28.2437L1.52249 33.778L0.775473 31.0344C0.508174 30.0511 1.10477 29.0339 2.10384 28.7708Z" fill="rgb(237,34,36)" fill-rule="evenodd" />
			<path id="Форма 4" d="M33.2681 8.03672C37.988 8.03672 41.8146 11.8026 41.8146 16.4478C41.8146 19.6346 39.601 22.3772 37.8366 24.8838L28.7342 24.8838C26.9596 22.3642 24.7227 19.6576 24.7227 16.4478C24.7227 11.8026 28.5482 8.03672 33.2681 8.03672L33.2681 8.03672Z" fill="rgb(255,220,151)" fill-rule="evenodd" />
			<g id="Сочетание 3">
				<path id="Форма 5" d="M29.7709 29.3469L30.5687 30.5142C30.896 30.9923 31.3991 31.2564 31.9855 31.2564L34.5507 31.2564C35.1362 31.2564 35.6403 30.9923 35.9675 30.5142L36.7654 29.3469L29.7709 29.3469ZM29.1234 24.8838L37.4128 24.8838C38.9129 24.8838 38.9129 27.1154 37.4128 27.1154L29.1234 27.1154C27.6233 27.1154 27.6233 24.8838 29.1234 24.8838ZM29.1234 29.3469L37.4128 29.3469C38.9129 29.3469 38.9129 27.1154 37.4128 27.1154L29.1234 27.1154C27.6233 27.1154 27.6233 29.3469 29.1234 29.3469Z" fill="rgb(255,255,255)" fill-rule="evenodd" />
			</g>
			<path id="Форма 6" d="M37.5276 17.7111L30.897 21.479L30.897 13.9442L37.5276 17.7111Z" fill="rgb(255,220,151)" fill-rule="evenodd" />
			<path id="Форма 7" d="M49.298 16.1637L45.8607 16.1637C45.7529 16.1637 45.6625 16.1947 45.6086 16.2907C45.5791 16.3428 45.5659 16.4048 45.5659 16.4638C45.5659 16.6468 45.6696 16.7639 45.8617 16.7639L49.299 16.7639C49.4067 16.7639 49.4972 16.7329 49.551 16.6368C49.5805 16.5848 49.5937 16.5228 49.5937 16.4638C49.5937 16.2807 49.489 16.1637 49.298 16.1637Z" fill="rgb(1,1,1)" fill-rule="evenodd" />
			<path id="Форма 8" d="M2.62523 8.85692L12.1921 8.85692C13.6374 8.85692 14.8173 10.0182 14.8173 11.4406L14.8173 20.8559C14.8173 22.2782 13.6374 23.4395 12.1921 23.4395L2.62523 23.4395C1.17998 23.4395 0 22.2782 0 20.8559L0 11.4406C0 10.0182 1.17998 8.85692 2.62523 8.85692L2.62523 8.85692ZM37.7868 18.3743L31.2527 22.0872C30.7557 22.3702 30.1855 22.0041 30.1855 21.451L30.1855 13.9472C30.1855 13.373 30.8462 13.0519 31.3086 13.376L37.8803 17.1099C38.4454 17.43 38.3041 18.0802 37.7868 18.3743L37.7868 18.3743ZM31.6084 20.2717L36.1088 17.7141L31.6084 15.1565L31.6084 20.2717ZM29.1234 27.8186C28.5645 27.8186 28.5645 28.6498 29.1234 28.6498L37.4128 28.6498C37.9718 28.6498 37.9718 27.8186 37.4128 27.8186L29.1234 27.8186ZM38.8855 27.1184C39.4008 26.4192 39.3672 25.42 38.7879 24.7658L38.9536 24.5338C40.662 22.1452 42.526 19.5405 42.526 16.4508C42.526 11.4195 38.3814 7.33955 33.2681 7.33955C28.1559 7.33955 24.0102 11.4185 24.0102 16.4508C24.0102 19.6476 25.985 22.2502 27.7676 24.7448C27.1721 25.395 27.1304 26.4122 27.6508 27.1184C26.7859 28.2907 27.5146 30.0501 29.1224 30.0501L29.3938 30.0501L29.9782 30.9053C30.2079 31.2414 30.5026 31.5035 30.8451 31.6825C31.1917 31.8636 31.5769 31.9586 31.9845 31.9586L34.5497 31.9586C34.9573 31.9586 35.3425 31.8636 35.6891 31.6825C36.0316 31.5035 36.3263 31.2404 36.556 30.9053L37.1404 30.0501L37.4118 30.0501C39.0217 30.0511 39.7504 28.2907 38.8855 27.1184L38.8855 27.1184ZM35.4319 30.0511L35.3781 30.1291C35.2805 30.2712 35.1595 30.3802 35.0223 30.4522C34.8882 30.5222 34.7286 30.5592 34.5507 30.5592L31.9855 30.5592C31.8066 30.5592 31.647 30.5222 31.5139 30.4522C31.3767 30.3802 31.2557 30.2712 31.1582 30.1291L31.1043 30.0511L35.4319 30.0511ZM32.5597 0.687918C32.5597 -0.229306 33.9775 -0.229306 33.9775 0.687918L33.9775 4.07075C33.9775 4.98797 32.5597 4.98797 32.5597 4.07075L32.5597 0.687918ZM17.2383 17.161C16.847 17.161 16.5299 16.8489 16.5299 16.4638C16.5299 16.0787 16.847 15.7666 17.2383 15.7666L20.6756 15.7666C21.0669 15.7666 21.384 16.0787 21.384 16.4638C21.384 16.8489 21.0669 17.161 20.6756 17.161L17.2383 17.161ZM21.4307 5.80317C20.7691 5.15201 21.7753 4.16177 22.4369 4.81293L24.867 7.20451C25.5286 7.85567 24.5224 8.84592 23.8608 8.19476L21.4307 5.80317ZM49.298 15.7636C50.234 15.7636 50.234 17.164 49.298 17.164L45.8607 17.164C44.9246 17.164 44.9246 15.7636 45.8607 15.7636L49.298 15.7636ZM44.1004 4.81393C44.762 4.16277 45.7682 5.15301 45.1065 5.80417L42.6754 8.19576C42.0138 8.84692 41.0076 7.85667 41.6693 7.20551L44.1004 4.81393ZM37.4128 24.1867L37.4667 24.1867C37.5957 24.0046 37.6933 23.8676 37.7919 23.7306C39.3754 21.517 41.1031 19.1024 41.1031 16.4518C41.1031 12.1937 37.5957 8.74089 33.2681 8.74089C28.9415 8.74089 25.4331 12.1927 25.4331 16.4518C25.4331 19.0854 27.1273 21.443 28.7017 23.6315L29.1001 24.1867L37.4128 24.1867ZM29.1184 25.587L37.4179 25.587C37.9708 25.591 37.9708 26.4182 37.4128 26.4182L29.1235 26.4182C28.5655 26.4182 28.5655 25.591 29.1184 25.587L29.1184 25.587ZM15.732 44.6207L10.6574 47.5044C10.1167 47.8105 9.59331 47.3904 9.59331 46.8182L9.59331 41.1258C9.59331 40.5517 10.2539 40.2306 10.7164 40.5547L15.7392 43.4084C16.2199 43.6805 16.2047 44.3606 15.732 44.6207ZM11.0152 45.6909L13.9687 44.0125L11.0152 42.3341L11.0152 45.6909ZM2.23393 37.77L4.22496 37.77L6.5341 34.4812L2.23393 34.4812L2.23393 37.77ZM5.9497 37.77L8.25884 34.4812L12.681 34.4812L10.3718 37.77L5.9497 37.77ZM12.0945 37.77L16.5167 37.77L18.8258 34.4812L14.4037 34.4812L12.0945 37.77ZM18.2404 37.77L20.5495 34.4812L22.5406 34.4812L22.5406 37.77L18.2404 37.77ZM22.5406 39.1703L2.23393 39.1703L2.23393 47.4504C2.23393 48.0825 2.75938 48.5987 3.4007 48.5987L21.3738 48.5987C22.0161 48.5987 22.5406 48.0815 22.5406 47.4504L22.5406 39.1703ZM16.6224 25.669L19.7192 28.2587L21.6421 27.7515L21.0791 25.683C20.9124 25.0699 20.2711 24.7068 19.648 24.8708L16.6224 25.669ZM18.0524 28.6988L13.7827 29.8251L10.6859 27.2354L14.9556 26.1091L18.0524 28.6988ZM12.1159 30.2642L9.01907 27.6745L4.74939 28.8008L7.84621 31.3904L12.1159 30.2642ZM6.1794 31.8295L2.02558 32.9248L1.46253 30.8563C1.29686 30.2452 1.66681 29.613 2.2878 29.449L3.08258 29.2389L6.1794 31.8295ZM1.9209 28.0986C0.544763 28.4617 -0.279495 29.8641 0.0894391 31.2194L0.811046 33.871L0.811046 47.4514C0.811046 48.8557 1.97375 50 3.4007 50L21.3738 50C22.8007 50 23.9635 48.8557 23.9635 47.4514L23.9635 33.782C23.9635 33.3949 23.6453 33.0819 23.252 33.0819L6.92336 33.0819L22.6961 28.9228C23.0752 28.8228 23.3008 28.4397 23.1992 28.0666L22.4521 25.323C22.0842 23.9696 20.6573 23.1574 19.2811 23.5205L1.9209 28.0986ZM32.8677 42.1971C33.258 42.1971 33.6279 42.2851 33.9572 42.4411L33.9572 36.9548C33.9572 36.5677 34.2753 36.2546 34.6686 36.2546C34.816 36.2546 34.9532 36.2986 35.0671 36.3747L38.1161 38.1071C38.4556 38.3001 38.5714 38.7282 38.3743 39.0613C38.1781 39.3954 37.7431 39.5094 37.4047 39.3154L35.3801 38.1651L35.3801 44.6697C35.3801 45.3529 35.0986 45.971 34.6443 46.4181C33.6686 47.3784 32.0668 47.3784 31.0911 46.4181C29.531 44.8817 30.6134 42.1971 32.8677 42.1971L32.8677 42.1971ZM31.7782 44.6697C31.7782 46.08 33.9572 46.08 33.9572 44.6697C33.9572 43.2593 31.7782 43.2593 31.7782 44.6697ZM28.8968 33.3959C27.29 33.3959 25.9789 34.6872 25.9789 36.2676L25.9789 47.1273C25.9789 48.7087 27.291 49.999 28.8968 49.999L39.9313 49.999C41.5381 49.999 42.8492 48.7077 42.8492 47.1273L42.8492 36.2676C42.8492 34.6862 41.5371 33.3959 39.9313 33.3959L28.8968 33.3959ZM39.9313 34.7963L28.8968 34.7963C28.0756 34.7963 27.4018 35.4594 27.4018 36.2676L27.4018 47.1273C27.4018 47.9355 28.0756 48.5987 28.8968 48.5987L39.9313 48.5987C40.7525 48.5987 41.4263 47.9345 41.4263 47.1273L41.4263 36.2676C41.4263 35.4604 40.7525 34.7963 39.9313 34.7963ZM10.1686 13.431C8.65217 11.9387 6.16415 11.9387 4.64878 13.431C3.13238 14.9234 3.13238 17.372 4.64878 18.8634C6.16517 20.3557 8.65319 20.3557 10.1686 18.8634C11.6839 17.372 11.6839 14.9234 10.1686 13.431ZM9.16238 14.4213C8.19888 13.473 6.61744 13.473 5.65394 14.4213C4.69045 15.3695 4.69045 16.9259 5.65394 17.8741C6.61744 18.8224 8.19888 18.8224 9.16238 17.8741C10.1259 16.9259 10.1259 15.3695 9.16238 14.4213ZM12.1921 10.2573L2.62523 10.2573C1.96562 10.2573 1.42289 10.7914 1.42289 11.4406L1.42289 20.8559C1.42289 21.505 1.96562 22.0391 2.62523 22.0391L12.1921 22.0391C12.8517 22.0391 13.3944 21.505 13.3944 20.8559L13.3944 11.4405C13.3934 10.7914 12.8517 10.2573 12.1921 10.2573L12.1921 10.2573Z" fill="rgb(1,1,1)" fill-rule="evenodd" />
		</g>
	</g>
</svg>

<svg xmlns="http://www.w3.org/2000/svg" width="50" height="50" fill="none" viewBox="0 0 50 50"><path fill="#d71b5a" fill-rule="evenodd" d="M2.625 9.554h9.567c1.052 0 1.914.847 1.914 1.884v9.415c0 1.035-.861 1.883-1.914 1.883H2.625c-1.052 0-1.914-.847-1.914-1.883v-9.416c0-1.036.861-1.883 1.914-1.883"/><ellipse cx="3.191" cy="3.143" fill="#eaeaea" rx="3.191" ry="3.143" transform="matrix(.9874 -.15826 .16326 .98658 3.74 13.549)"/><path fill="#fcb13c" fill-rule="evenodd" d="M28.897 34.093H39.93c1.214 0 2.207.977 2.207 2.172v10.86c0 1.194-.993 2.17-2.207 2.17H28.897c-1.214 0-2.207-.976-2.207-2.17v-10.86c0-1.195.993-2.172 2.207-2.172"/><path fill="#ed2224" fill-rule="evenodd" d="M1.522 33.778h21.73v13.67c0 1.018-.844 1.848-1.878 1.848H3.4c-1.035 0-1.879-.83-1.879-1.849zm.582-5.007 17.36-4.578c1-.263 2.033.324 2.301 1.307l.747 2.744-20.99 5.534-.747-2.744c-.267-.983.33-2 1.329-2.263"/><path fill="#ffdc97" fill-rule="evenodd" d="M33.268 8.037c4.72 0 8.547 3.766 8.547 8.41 0 3.188-2.214 5.93-3.978 8.437h-9.103c-1.774-2.52-4.011-5.226-4.011-8.436 0-4.645 3.825-8.411 8.545-8.411"/><path fill="#fff" fill-rule="evenodd" d="m29.77 29.347.799 1.167c.327.478.83.742 1.416.742h2.566c.585 0 1.09-.264 1.416-.742l.798-1.167zm-.647-4.463h8.29c1.5 0 1.5 2.231 0 2.231h-8.29c-1.5 0-1.5-2.231 0-2.231m0 4.463h8.29c1.5 0 1.5-2.232 0-2.232h-8.29c-1.5 0-1.5 2.232 0 2.232"/><path fill="#ffdc97" fill-rule="evenodd" d="m37.528 17.711-6.631 3.768v-7.535z"/><path fill="#010101" fill-rule="evenodd" d="M49.298 16.164h-3.437c-.108 0-.198.03-.252.127a.36.36 0 0 0-.043.173c0 .183.104.3.296.3h3.437c.108 0 .198-.031.252-.127a.36.36 0 0 0 .043-.173c0-.183-.105-.3-.296-.3"/><path fill="#010101" fill-rule="evenodd" d="M2.625 8.857h9.567c1.445 0 2.625 1.161 2.625 2.584v9.415c0 1.422-1.18 2.583-2.625 2.583H2.625C1.18 23.44 0 22.28 0 20.856V11.44c0-1.423 1.18-2.584 2.625-2.584m35.162 9.517-6.534 3.713c-.497.283-1.067-.083-1.067-.636v-7.504c0-.574.66-.895 1.123-.571l6.571 3.734c.565.32.424.97-.093 1.264m-6.179 1.898 4.5-2.558-4.5-2.557zm-2.485 7.547c-.559 0-.559.83 0 .83h8.29c.559 0 .559-.83 0-.83zm9.763-.7c.515-.7.481-1.699-.098-2.353l.166-.232c1.708-2.389 3.572-4.993 3.572-8.083 0-5.032-4.145-9.111-9.258-9.111s-9.258 4.079-9.258 9.11c0 3.198 1.975 5.8 3.758 8.295-.596.65-.638 1.667-.117 2.373-.865 1.173-.136 2.932 1.471 2.932h.272l.584.855a2.39 2.39 0 0 0 2.006 1.054h2.566a2.395 2.395 0 0 0 2.006-1.053l.584-.856h.272c1.61.001 2.338-1.76 1.474-2.932m-3.454 2.932-.054.078a1 1 0 0 1-.356.323q-.203.106-.471.107h-2.566c-.178 0-.338-.037-.471-.107a1 1 0 0 1-.356-.323l-.054-.078zM32.56.688c0-.917 1.417-.917 1.417 0V4.07c0 .917-1.417.917-1.417 0zM17.238 17.16a.703.703 0 0 1-.708-.697c0-.385.317-.697.708-.697h3.438c.39 0 .708.312.708.697a.703.703 0 0 1-.708.697zm4.193-11.358c-.662-.651.344-1.641 1.006-.99l2.43 2.392c.662.65-.345 1.64-1.006.99zm27.867 9.96c.936 0 .936 1.401 0 1.401h-3.437c-.936 0-.936-1.4 0-1.4zM44.1 4.814c.662-.65 1.668.34 1.006.991l-2.43 2.392c-.662.65-1.668-.34-1.007-.99zm-6.687 19.374h.054c.129-.182.226-.32.325-.456 1.583-2.214 3.311-4.629 3.311-7.28 0-4.257-3.507-7.71-7.835-7.71-4.326 0-7.835 3.452-7.835 7.71 0 2.634 1.694 4.992 3.269 7.18l.398.556zm-8.295 1.4h8.3c.553.004.553.831-.005.831h-8.29c-.558 0-.558-.827-.005-.831M15.732 44.621l-5.075 2.883c-.54.306-1.064-.114-1.064-.686v-5.692c0-.574.66-.895 1.123-.571l5.023 2.853a.693.693 0 0 1-.007 1.213m-4.717 1.07 2.954-1.678-2.954-1.679zM2.234 37.77h1.991l2.31-3.289H2.233zm3.716 0 2.309-3.289h4.422l-2.31 3.289zm6.145 0h4.422l2.309-3.289h-4.422zm6.145 0 2.31-3.289h1.99v3.289zm4.3 1.4H2.235v8.28c0 .633.525 1.149 1.167 1.149h17.973c.642 0 1.167-.517 1.167-1.149zM16.623 25.67l3.097 2.59 1.923-.508-.563-2.068a1.17 1.17 0 0 0-1.431-.812zm1.43 3.03-4.27 1.126-3.096-2.59 4.27-1.126zm-5.936 1.565-3.097-2.59-4.27 1.127 3.097 2.59zM6.179 31.83l-4.153 1.095-.563-2.069a1.15 1.15 0 0 1 .825-1.407l.795-.21zm-4.258-3.731c-1.376.363-2.2 1.765-1.832 3.12l.722 2.652v13.58C.811 48.856 1.974 50 3.401 50h17.973c1.427 0 2.59-1.144 2.59-2.549V33.782c0-.387-.319-.7-.712-.7H6.923l15.773-4.16c.38-.1.605-.482.503-.855l-.747-2.744c-.368-1.353-1.795-2.166-3.17-1.803zm30.947 14.098c.39 0 .76.088 1.09.244v-5.486c0-.387.317-.7.71-.7.148 0 .285.044.4.12l3.048 1.732c.34.193.455.621.258.954a.715.715 0 0 1-.97.254l-2.024-1.15v6.505c0 .683-.281 1.301-.736 1.748-.975.96-2.577.96-3.553 0-1.56-1.536-.478-4.22 1.777-4.22m-1.09 2.473c0 1.41 2.18 1.41 2.18 0s-2.18-1.41-2.18 0m-2.881-11.274c-1.607 0-2.918 1.291-2.918 2.872v10.86c0 1.58 1.312 2.871 2.918 2.871H39.93c1.607 0 2.918-1.291 2.918-2.872v-10.86c0-1.58-1.312-2.871-2.918-2.871zm11.034 1.4H28.897c-.821 0-1.495.663-1.495 1.472v10.86c0 .807.674 1.47 1.495 1.47H39.93c.822 0 1.495-.663 1.495-1.47v-10.86c0-.808-.674-1.472-1.495-1.472M10.17 13.431c-1.517-1.492-4.005-1.492-5.52 0a3.81 3.81 0 0 0 0 5.432c1.516 1.493 4.004 1.493 5.52 0a3.814 3.814 0 0 0 0-5.432m-1.007.99a2.52 2.52 0 0 0-3.508 0 2.424 2.424 0 0 0 0 3.453 2.52 2.52 0 0 0 3.508 0 2.424 2.424 0 0 0 0-3.453m3.03-4.164H2.625c-.66 0-1.202.534-1.202 1.184v9.415c0 .649.543 1.183 1.202 1.183h9.567c.66 0 1.202-.534 1.202-1.183V11.44a1.2 1.2 0 0 0-1.202-1.183"/></svg>
